; generated by PrusaSlicer 2.2.0+win64 on 2020-12-17 at 16:57:30 UTC

; 

; external perimeters extrusion width = 0.45mm
; perimeters extrusion width = 0.45mm
; infill extrusion width = 0.45mm
; solid infill extrusion width = 0.45mm
; top infill extrusion width = 0.45mm
; first layer extrusion width = 0.42mm

M201 X500 Y500 Z100 E5000 ; sets maximum accelerations, mm/sec^2
M203 X500 Y500 Z10 E60 ; sets maximum feedrates, mm/sec
M204 P500 R1000 T500 ; sets acceleration (P, T) and retract acceleration (R), mm/sec^2
M205 X8.00 Y8.00 Z0.40 E5.00 ; sets the jerk limits, mm/sec
M205 S0 T0 ; sets the minimum extruding and travel feed rate, mm/sec
M107
G90 ; use absolute coordinates
M83 ; extruder relative mode
M104 S215 ; set extruder temp
M140 S55 ; set bed temp
M190 S55 ; wait for bed temp
M109 S215 ; wait for extruder temp
G28 ; home all
G1 Z2 F240
G1 X2 Y10 F3000
G1 Z0.28 F240
G92 E0.0
G1 Y190 E15.0 F1500.0 ; intro line
G1 X2.3 F5000
G1 Y10 E30 F1200.0 ; intro line
G92 E0.0
G21 ; set units to millimeters
G90 ; use absolute coordinates
M83 ; use relative distances for extrusion
; Filament gcode
;BEFORE_LAYER_CHANGE
;0.2


G1 E-5.00000 F3600.00000
G1 Z0.200 F9000.000
;AFTER_LAYER_CHANGE
;0.2
G1 X81.378 Y81.379
G1 E5.00000 F2400.00000
G1 F1200.000
G1 X82.915 Y79.920 E0.06644
G1 X84.503 Y78.563 E0.06549
G1 X87.099 Y76.624 E0.10160
G1 X88.850 Y75.488 E0.06545
G1 X90.685 Y74.428 E0.06644
G1 X92.574 Y73.466 E0.06644
G1 X94.510 Y72.604 E0.06644
G1 X96.488 Y71.845 E0.06644
G1 X98.503 Y71.190 E0.06644
G1 X100.550 Y70.641 E0.06644
G1 X102.593 Y70.207 E0.06549
G1 X105.800 Y69.742 E0.10160
G1 X107.881 Y69.578 E0.06545
G1 X110.003 Y69.523 E0.06656
G1 X112.118 Y69.578 E0.06632
G1 X114.230 Y69.745 E0.06644
G1 X116.331 Y70.021 E0.06644
G1 X118.385 Y70.401 E0.06549
G1 X121.526 Y71.199 E0.10160
G1 X123.511 Y71.844 E0.06545
G1 X125.489 Y72.604 E0.06645
G1 X127.425 Y73.466 E0.06644
G1 X129.287 Y74.413 E0.06549
G1 X132.071 Y76.070 E0.10160
G1 X133.791 Y77.253 E0.06545
G1 X135.473 Y78.543 E0.06644
G1 X137.084 Y79.919 E0.06644
G1 X138.621 Y81.378 E0.06644
G1 X140.080 Y82.915 E0.06644
G1 X141.437 Y84.503 E0.06549
G1 X143.376 Y87.099 E0.10160
G1 X144.512 Y88.850 E0.06545
G1 X145.572 Y90.685 E0.06644
G1 X146.534 Y92.574 E0.06644
G1 X147.396 Y94.510 E0.06644
G1 X148.155 Y96.488 E0.06644
G1 X148.801 Y98.474 E0.06549
G1 X149.599 Y101.615 E0.10160
G1 X149.979 Y103.667 E0.06545
G1 X150.255 Y105.768 E0.06644
G1 X150.422 Y107.881 E0.06644
G1 X150.477 Y109.999 E0.06644
G1 X150.422 Y112.118 E0.06644
G1 X150.258 Y114.200 E0.06549
G1 X149.793 Y117.407 E0.10160
G1 X149.359 Y119.449 E0.06545
G1 X148.810 Y121.496 E0.06644
G1 X148.156 Y123.511 E0.06644
G1 X147.396 Y125.489 E0.06644
G1 X146.534 Y127.425 E0.06644
G1 X145.587 Y129.287 E0.06549
G1 X143.930 Y132.071 E0.10160
G1 X142.747 Y133.791 E0.06545
G1 X141.457 Y135.473 E0.06644
G1 X140.081 Y137.084 E0.06644
G1 X138.622 Y138.621 E0.06644
G1 X137.085 Y140.080 E0.06644
G1 X135.497 Y141.437 E0.06549
G1 X132.901 Y143.376 E0.10160
G1 X131.150 Y144.512 E0.06545
G1 X129.315 Y145.572 E0.06644
G1 X127.426 Y146.534 E0.06644
G1 X125.490 Y147.396 E0.06645
G1 X123.512 Y148.155 E0.06644
G1 X121.526 Y148.801 E0.06549
G1 X118.385 Y149.599 E0.10160
G1 X116.333 Y149.979 E0.06545
G1 X114.232 Y150.255 E0.06644
G1 X112.119 Y150.422 E0.06644
G1 X110.001 Y150.477 E0.06644
G1 X107.882 Y150.422 E0.06644
G1 X105.800 Y150.258 E0.06549
G1 X102.593 Y149.793 E0.10160
G1 X100.551 Y149.359 E0.06545
G1 X98.504 Y148.810 E0.06644
G1 X96.489 Y148.156 E0.06644
G1 X94.511 Y147.396 E0.06644
G1 X92.575 Y146.534 E0.06644
G1 X90.713 Y145.587 E0.06549
G1 X87.929 Y143.930 E0.10160
G1 X86.209 Y142.747 E0.06545
G1 X84.527 Y141.457 E0.06644
G1 X82.916 Y140.081 E0.06644
G1 X81.379 Y138.622 E0.06644
G1 X79.920 Y137.085 E0.06644
G1 X78.563 Y135.497 E0.06549
G1 X76.624 Y132.901 E0.10160
G1 X75.488 Y131.150 E0.06545
G1 X74.428 Y129.315 E0.06644
G1 X73.466 Y127.426 E0.06644
G1 X72.604 Y125.490 E0.06645
G1 X71.845 Y123.512 E0.06644
G1 X71.199 Y121.526 E0.06549
G1 X70.401 Y118.385 E0.10160
G1 X70.021 Y116.333 E0.06545
G1 X69.745 Y114.232 E0.06644
G1 X69.578 Y112.119 E0.06644
G1 X69.523 Y110.001 E0.06644
G1 X69.578 Y107.882 E0.06644
G1 X69.742 Y105.800 E0.06549
G1 X70.207 Y102.593 E0.10160
G1 X70.641 Y100.551 E0.06545
G1 X71.190 Y98.504 E0.06644
G1 X71.844 Y96.489 E0.06644
G1 X72.604 Y94.511 E0.06645
G1 X73.466 Y92.575 E0.06644
G1 X74.413 Y90.713 E0.06549
G1 X76.070 Y87.929 E0.10160
G1 X77.253 Y86.209 E0.06545
G1 X78.543 Y84.527 E0.06644
G1 X79.919 Y82.916 E0.06644
G1 X81.337 Y81.422 E0.06456
; printing object TEST - Stage 1 Motor Housing.STL id:0 copy 0
G1 E-3.50000 F3600.00000
G1 F7200.000
G1 X82.915 Y79.920 E-1.03506
G1 X83.539 Y79.387 E-0.38994
G1 E-0.07500 F3600.00000
G1 X87.259 Y87.259 F9000.000
G1 E5.00000 F2400.00000
G1 F1200.000
G1 X88.481 Y86.100 E0.05279
G1 X89.761 Y85.007 E0.05279
G1 X91.097 Y83.982 E0.05279
G1 X92.484 Y83.028 E0.05279
G1 X93.920 Y82.149 E0.05279
G1 X95.381 Y81.355 E0.05212
G1 X96.156 Y80.972 E0.02711
G1 X97.693 Y80.288 E0.05275
G1 X99.265 Y79.685 E0.05279
G1 X100.845 Y79.171 E0.05212
G1 X101.678 Y78.935 E0.02711
G1 X103.314 Y78.543 E0.05275
G1 X104.969 Y78.236 E0.05279
G1 X106.638 Y78.016 E0.05279
G1 X108.317 Y77.884 E0.05279
G1 X109.978 Y77.840 E0.05212
G1 X110.843 Y77.851 E0.02711
G1 X112.523 Y77.939 E0.05275
G1 X114.198 Y78.115 E0.05279
G1 X115.861 Y78.378 E0.05279
G1 X117.508 Y78.728 E0.05279
G1 X119.134 Y79.164 E0.05279
G1 X120.735 Y79.685 E0.05279
G1 X122.307 Y80.288 E0.05279
G1 X123.845 Y80.973 E0.05279
G1 X125.345 Y81.737 E0.05279
G1 X126.803 Y82.579 E0.05278
G1 X127.866 Y83.262 E0.03961
G1 X128.904 Y83.982 E0.03961
G1 X130.239 Y85.007 E0.05278
G1 X131.519 Y86.100 E0.05279
G1 X132.741 Y87.259 E0.05279
G1 X133.900 Y88.481 E0.05279
G1 X134.993 Y89.761 E0.05279
G1 X136.018 Y91.097 E0.05279
G1 X136.972 Y92.484 E0.05279
G1 X137.851 Y93.920 E0.05279
G1 X138.645 Y95.381 E0.05212
G1 X139.028 Y96.156 E0.02711
G1 X139.712 Y97.693 E0.05275
G1 X140.315 Y99.265 E0.05279
G1 X140.829 Y100.845 E0.05212
G1 X141.065 Y101.678 E0.02711
G1 X141.457 Y103.314 E0.05275
G1 X141.764 Y104.969 E0.05279
G1 X141.984 Y106.638 E0.05279
G1 X142.116 Y108.317 E0.05279
G1 X142.160 Y110.000 E0.05279
G1 X142.116 Y111.683 E0.05279
G1 X141.984 Y113.362 E0.05279
G1 X141.764 Y115.031 E0.05279
G1 X141.461 Y116.665 E0.05212
G1 X141.271 Y117.509 E0.02711
G1 X140.836 Y119.134 E0.05275
G1 X140.315 Y120.735 E0.05279
G1 X139.712 Y122.307 E0.05279
G1 X139.027 Y123.845 E0.05279
G1 X138.263 Y125.345 E0.05279
G1 X137.421 Y126.803 E0.05278
G1 X136.738 Y127.866 E0.03961
G1 X136.018 Y128.904 E0.03961
G1 X134.993 Y130.239 E0.05278
G1 X133.900 Y131.519 E0.05279
G1 X132.741 Y132.741 E0.05279
G1 X131.519 Y133.900 E0.05279
G1 X130.239 Y134.993 E0.05279
G1 X128.904 Y136.018 E0.05278
G1 X127.866 Y136.738 E0.03961
G1 X126.803 Y137.421 E0.03961
G1 X125.345 Y138.263 E0.05278
G1 X123.845 Y139.027 E0.05279
G1 X122.307 Y139.712 E0.05279
G1 X120.735 Y140.315 E0.05279
G1 X119.155 Y140.829 E0.05212
G1 X118.322 Y141.065 E0.02711
G1 X116.686 Y141.457 E0.05275
G1 X115.031 Y141.764 E0.05279
G1 X113.362 Y141.984 E0.05279
G1 X111.683 Y142.116 E0.05279
G1 X110.000 Y142.160 E0.05279
G1 X108.317 Y142.116 E0.05279
G1 X106.638 Y141.984 E0.05279
G1 X104.969 Y141.764 E0.05279
G1 X103.335 Y141.461 E0.05212
G1 X102.491 Y141.271 E0.02711
G1 X100.866 Y140.836 E0.05275
G1 X99.265 Y140.315 E0.05279
G1 X97.693 Y139.712 E0.05279
G1 X96.156 Y139.028 E0.05275
G1 X95.398 Y138.654 E0.02648
G1 X93.920 Y137.851 E0.05275
G1 X92.484 Y136.972 E0.05279
G1 X91.097 Y136.018 E0.05279
G1 X89.761 Y134.993 E0.05279
G1 X88.481 Y133.900 E0.05279
G1 X87.259 Y132.741 E0.05279
G1 X86.100 Y131.519 E0.05279
G1 X85.007 Y130.239 E0.05279
G1 X83.982 Y128.904 E0.05278
G1 X83.262 Y127.866 E0.03961
G1 X82.579 Y126.803 E0.03961
G1 X81.737 Y125.345 E0.05278
G1 X80.973 Y123.845 E0.05279
G1 X80.288 Y122.307 E0.05279
G1 X79.685 Y120.735 E0.05279
G1 X79.171 Y119.155 E0.05212
G1 X78.935 Y118.322 E0.02711
G1 X78.543 Y116.686 E0.05275
G1 X78.236 Y115.031 E0.05279
G1 X78.016 Y113.362 E0.05279
G1 X77.884 Y111.683 E0.05279
G1 X77.840 Y110.000 E0.05279
G1 X77.884 Y108.317 E0.05279
G1 X78.016 Y106.638 E0.05279
G1 X78.236 Y104.969 E0.05279
G1 X78.539 Y103.335 E0.05212
G1 X78.729 Y102.491 E0.02711
G1 X79.164 Y100.866 E0.05275
G1 X79.685 Y99.265 E0.05279
G1 X80.288 Y97.693 E0.05279
G1 X80.964 Y96.174 E0.05212
G1 X81.346 Y95.398 E0.02711
G1 X82.149 Y93.920 E0.05275
G1 X83.028 Y92.484 E0.05279
G1 X83.982 Y91.097 E0.05279
G1 X85.007 Y89.761 E0.05279
G1 X86.100 Y88.481 E0.05279
G1 X87.218 Y87.303 E0.05091
G1 X87.156 Y86.873 F9000.000
G1 E-3.50000 F3600.00000
G1 F7200.000
G1 X88.481 Y86.100 E-0.82822
G1 X89.436 Y85.284 E-0.59678
G1 E-0.07500 F3600.00000
G1 X82.318 Y92.922 F9000.000
G1 E5.00000 F2400.00000
G1 F1200.000
G1 X82.149 Y92.869 E0.00555
G1 X82.175 Y92.474 E0.01239
G1 X82.122 Y92.030 E0.01402
G1 X81.968 Y91.556 E0.01563
G1 X81.748 Y91.163 E0.01414
G1 X81.424 Y90.783 E0.01563
G1 X81.070 Y90.504 E0.01414
G1 X80.626 Y90.278 E0.01563
G1 X80.192 Y90.155 E0.01414
G1 X79.691 Y90.116 E0.01576
G1 X79.192 Y90.182 E0.01576
G1 X78.769 Y90.325 E0.01402
G1 X78.353 Y90.558 E0.01496
G1 X78.232 Y90.431 E0.00552
G1 X79.249 Y88.866 E0.05853
G1 X79.813 Y88.068 E0.03063
G1 X80.398 Y87.285 E0.03063
G1 X81.002 Y86.518 E0.03063
G1 X81.627 Y85.767 E0.03063
G1 X82.271 Y85.033 E0.03063
G1 X82.934 Y84.316 E0.03063
G1 X83.616 Y83.616 E0.03063
G1 X84.316 Y82.934 E0.03063
G1 X85.033 Y82.271 E0.03063
G1 X85.767 Y81.627 E0.03063
G1 X86.518 Y81.002 E0.03063
G1 X87.285 Y80.398 E0.03063
G1 X88.068 Y79.813 E0.03063
G1 X88.866 Y79.249 E0.03063
G1 X89.678 Y78.707 E0.03063
G1 X90.504 Y78.186 E0.03063
G1 X91.344 Y77.686 E0.03063
G1 X92.196 Y77.209 E0.03063
G1 X93.060 Y76.754 E0.03063
G1 X93.936 Y76.322 E0.03063
G1 X94.823 Y75.913 E0.03063
G1 X95.721 Y75.527 E0.03063
G1 X96.628 Y75.165 E0.03063
G1 X97.545 Y74.827 E0.03063
G1 X98.470 Y74.513 E0.03063
G1 X99.403 Y74.224 E0.03063
G1 X100.343 Y73.959 E0.03063
G1 X101.289 Y73.718 E0.03063
G1 X102.242 Y73.503 E0.03063
G1 X103.200 Y73.312 E0.03063
G1 X104.163 Y73.147 E0.03063
G1 X105.130 Y73.006 E0.03063
G1 X106.100 Y72.892 E0.03063
G1 X107.072 Y72.802 E0.03063
G1 X108.946 Y72.703 E0.05881
G1 X108.994 Y72.875 E0.00559
G1 X108.625 Y73.081 E0.01326
G1 X108.243 Y73.408 E0.01576
G1 X107.937 Y73.806 E0.01576
G1 X107.738 Y74.211 E0.01414
G1 X107.608 Y74.693 E0.01564
G1 X107.579 Y75.145 E0.01423
G1 X107.644 Y75.637 E0.01554
G1 X107.789 Y76.064 E0.01413
G1 X108.038 Y76.495 E0.01563
G1 X108.333 Y76.832 E0.01402
G1 X108.684 Y77.108 E0.01402
G1 X109.091 Y77.316 E0.01433
G1 X109.053 Y77.487 E0.00552
G1 X108.297 Y77.507 E0.02370
G1 X106.599 Y77.641 E0.05341
G1 X104.910 Y77.863 E0.05341
G1 X103.235 Y78.174 E0.05341
G1 X101.582 Y78.571 E0.05330
G1 X100.736 Y78.810 E0.02758
G1 X99.139 Y79.329 E0.05266
G1 X97.549 Y79.939 E0.05341
G1 X95.996 Y80.631 E0.05330
G1 X95.207 Y81.020 E0.02758
G1 X93.731 Y81.822 E0.05266
G1 X92.279 Y82.712 E0.05341
G1 X90.875 Y83.677 E0.05341
G1 X89.524 Y84.714 E0.05341
G1 X88.228 Y85.820 E0.05341
G1 X86.993 Y86.993 E0.05341
G1 X85.820 Y88.228 E0.05341
G1 X84.714 Y89.524 E0.05341
G1 X83.677 Y90.875 E0.05341
G1 X82.712 Y92.279 E0.05341
G1 X82.349 Y92.871 E0.02177
G1 E-3.50000 F3600.00000
G1 F7200.000
G1 X82.149 Y92.869 E-0.09510
G1 X82.175 Y92.474 E-0.18775
G1 X82.122 Y92.030 E-0.21233
G1 X81.968 Y91.556 E-0.23685
G1 X81.748 Y91.163 E-0.21418
G1 X81.424 Y90.783 E-0.23685
G1 X81.070 Y90.504 E-0.21418
G1 X81.018 Y90.478 E-0.02776
G1 E-0.07500 F3600.00000
G1 X108.346 Y76.275 F9000.000
G1 E5.00000 F2400.00000
G1 F1200.000
G1 X108.134 Y75.907 E0.01331
G1 X108.013 Y75.551 E0.01181
G1 X107.958 Y75.133 E0.01322
G1 X107.982 Y74.754 E0.01190
G1 X108.092 Y74.344 E0.01331
G1 X108.259 Y74.006 E0.01181
G1 X108.518 Y73.669 E0.01335
G1 X108.842 Y73.392 E0.01335
G1 X109.169 Y73.209 E0.01177
G1 X109.524 Y73.088 E0.01177
G1 X109.947 Y73.033 E0.01335
G1 X110.371 Y73.066 E0.01335
G1 X110.732 Y73.168 E0.01177
G1 X111.069 Y73.334 E0.01177
G1 X111.406 Y73.593 E0.01335
G1 X111.683 Y73.917 E0.01335
G1 X111.867 Y74.245 E0.01181
G1 X111.998 Y74.649 E0.01331
G1 X112.042 Y75.023 E0.01181
G1 X112.009 Y75.446 E0.01331
G1 X111.907 Y75.808 E0.01181
G1 X111.714 Y76.187 E0.01330
G1 X111.482 Y76.481 E0.01177
G1 X111.200 Y76.729 E0.01177
G1 X110.832 Y76.941 E0.01331
G1 X110.476 Y77.062 E0.01181
G1 X110.055 Y77.117 E0.01331
G1 X109.679 Y77.093 E0.01181
G1 X109.268 Y76.982 E0.01335
G1 X108.888 Y76.789 E0.01335
G1 X108.594 Y76.557 E0.01177
G1 X108.386 Y76.320 E0.00988
G1 X107.948 Y76.313 F9000.000
G1 E-3.50000 F3600.00000
G1 F7200.000
G1 X108.134 Y75.907 E-0.22959
G1 X108.013 Y75.551 E-0.17886
G1 X107.958 Y75.133 E-0.20021
G1 X107.982 Y74.754 E-0.18024
G1 X108.092 Y74.344 E-0.20161
G1 X108.259 Y74.006 E-0.17890
G1 X108.518 Y73.669 E-0.20223
G1 X108.603 Y73.596 E-0.05336
G1 E-0.07500 F3600.00000
G1 X110.936 Y77.316 F9000.000
G1 E5.00000 F2400.00000
G1 F1200.000
G1 X111.420 Y77.037 E0.01753
G1 X111.757 Y76.742 E0.01402
G1 X112.033 Y76.391 E0.01402
G1 X112.260 Y75.947 E0.01563
G1 X112.382 Y75.513 E0.01414
G1 X112.421 Y75.015 E0.01563
G1 X112.368 Y74.568 E0.01414
G1 X112.214 Y74.093 E0.01563
G1 X111.994 Y73.700 E0.01414
G1 X111.667 Y73.318 E0.01576
G1 X111.269 Y73.012 E0.01576
G1 X111.018 Y72.888 E0.00878
G1 X111.062 Y72.711 E0.00572
G1 X111.955 Y72.738 E0.02803
G1 X112.928 Y72.802 E0.03055
G1 X113.900 Y72.892 E0.03063
G1 X114.870 Y73.006 E0.03063
G1 X115.837 Y73.147 E0.03063
G1 X116.800 Y73.312 E0.03063
G1 X117.758 Y73.503 E0.03063
G1 X118.711 Y73.718 E0.03063
G1 X119.657 Y73.959 E0.03063
G1 X120.597 Y74.224 E0.03063
G1 X121.530 Y74.513 E0.03063
G1 X122.455 Y74.827 E0.03063
G1 X123.372 Y75.165 E0.03063
G1 X124.279 Y75.527 E0.03063
G1 X125.177 Y75.913 E0.03063
G1 X126.064 Y76.322 E0.03063
G1 X126.940 Y76.754 E0.03063
G1 X127.804 Y77.209 E0.03063
G1 X128.656 Y77.686 E0.03063
G1 X129.496 Y78.186 E0.03063
G1 X130.322 Y78.707 E0.03063
G1 X131.134 Y79.249 E0.03063
G1 X131.932 Y79.813 E0.03063
G1 X132.715 Y80.398 E0.03063
G1 X133.482 Y81.002 E0.03063
G1 X134.233 Y81.627 E0.03063
G1 X134.967 Y82.271 E0.03063
G1 X135.684 Y82.934 E0.03063
G1 X136.384 Y83.616 E0.03063
G1 X137.066 Y84.316 E0.03063
G1 X137.729 Y85.033 E0.03063
G1 X138.373 Y85.767 E0.03063
G1 X138.998 Y86.518 E0.03063
G1 X139.602 Y87.285 E0.03063
G1 X140.187 Y88.068 E0.03063
G1 X140.750 Y88.866 E0.03063
G1 X141.761 Y90.419 E0.05810
G1 X141.645 Y90.546 E0.00541
G1 X141.117 Y90.278 E0.01855
G1 X140.683 Y90.155 E0.01414
G1 X140.183 Y90.116 E0.01576
G1 X139.684 Y90.182 E0.01576
G1 X139.261 Y90.325 E0.01402
G1 X138.871 Y90.544 E0.01402
G1 X138.489 Y90.870 E0.01576
G1 X138.183 Y91.269 E0.01576
G1 X137.984 Y91.673 E0.01414
G1 X137.854 Y92.155 E0.01563
G1 X137.825 Y92.601 E0.01402
G1 X137.857 Y92.867 E0.00839
G1 X137.685 Y92.926 E0.00571
G1 X137.288 Y92.279 E0.02380
G1 X136.323 Y90.875 E0.05341
G1 X135.286 Y89.524 E0.05341
G1 X134.180 Y88.228 E0.05341
G1 X133.007 Y86.993 E0.05341
G1 X131.772 Y85.820 E0.05341
G1 X130.476 Y84.714 E0.05341
G1 X129.126 Y83.678 E0.05337
G1 X128.075 Y82.949 E0.04010
G1 X127.000 Y82.257 E0.04010
G1 X125.525 Y81.406 E0.05337
G1 X124.008 Y80.632 E0.05341
G1 X122.451 Y79.939 E0.05341
G1 X120.861 Y79.329 E0.05341
G1 X119.241 Y78.803 E0.05341
G1 X117.596 Y78.362 E0.05341
G1 X115.929 Y78.008 E0.05341
G1 X114.247 Y77.741 E0.05341
G1 X112.553 Y77.563 E0.05341
G1 X110.976 Y77.480 E0.04952
G1 X110.950 Y77.374 E0.00342
G1 E-3.50000 F3600.00000
G1 F7200.000
G1 X111.420 Y77.037 E-0.27495
G1 X111.757 Y76.742 E-0.21234
G1 X112.033 Y76.391 E-0.21234
G1 X112.260 Y75.947 E-0.23684
G1 X112.382 Y75.513 E-0.21418
G1 X112.421 Y75.015 E-0.23685
G1 X112.412 Y74.937 E-0.03749
G1 E-0.07500 F3600.00000
G1 X138.505 Y91.469 F9000.000
G1 E5.00000 F2400.00000
G1 F1200.000
G1 X138.764 Y91.131 E0.01335
G1 X139.088 Y90.855 E0.01335
G1 X139.415 Y90.671 E0.01177
G1 X139.770 Y90.551 E0.01177
G1 X140.192 Y90.495 E0.01335
G1 X140.617 Y90.528 E0.01335
G1 X140.979 Y90.631 E0.01181
G1 X141.357 Y90.823 E0.01331
G1 X141.653 Y91.057 E0.01181
G1 X141.929 Y91.379 E0.01330
G1 X142.113 Y91.708 E0.01181
G1 X142.244 Y92.111 E0.01330
